htdocs/img/ball-black.svg

<svg fill="none" height="43" viewBox="0 0 43 43" width="43" xmlns="http://www.w3.org/2000/svg"><g fill="#000"><path clip-rule="evenodd" d="m21.5295.530487c11.0931 0 20.1802 8.557483 20.9923 19.415413h-12.3373c-.7484-4.0907-4.3381-7.1915-8.655-7.1915s-7.9066 3.1008-8.655 7.1915h-12.337297c.812067-10.85793 9.899197-19.415413 20.992297-19.415413zm21 22.470013c-.7562 10.9127-9.8683 19.53-21 19.53s-20.24389-8.6173-21.00002-19.53h12.32582c.7011 4.1474 4.3177 7.3061 8.6742 7.3061 4.3564 0 7.9731-3.1587 8.6743-7.3061z" fill-rule="evenodd"/><path d="m21.5294 27.0305c3.0376 0 5.5001-2.4624 5.5001-5.5s-2.4625-5.5-5.5001-5.5c-3.0375 0-5.4999 2.4624-5.4999 5.5s2.4624 5.5 5.4999 5.5z"/></g></svg>

<svg width="43" height="43" viewBox="0 0 43 43" fill="none" xmlns="http://www.w3.org/2000/svg">
<path fill-rule="evenodd" clip-rule="evenodd" d="M21.5295 0.530487C32.6226 0.530487 41.7097 9.08797 42.5218 19.9459H30.1845C29.4361 15.8552 25.8464 12.7544 21.5295 12.7544C17.2126 12.7544 13.6229 15.8552 12.8745 19.9459H0.537203C1.34927 9.08797 10.4364 0.530487 21.5295 0.530487ZM42.5295 23.0005C41.7733 33.9132 32.6612 42.5305 21.5295 42.5305C10.3978 42.5305 1.28561 33.9132 0.52948 23.0005H12.8553C13.5564 27.1479 17.173 30.3066 21.5295 30.3066C25.8859 30.3066 29.5026 27.1479 30.2038 23.0005H42.5295Z" fill="black"/>
<path d="M21.5294 27.0305C24.567 27.0305 27.0295 24.5681 27.0295 21.5305C27.0295 18.4929 24.567 16.0305 21.5294 16.0305C18.4919 16.0305 16.0295 18.4929 16.0295 21.5305C16.0295 24.5681 18.4919 27.0305 21.5294 27.0305Z" fill="black"/>
</svg>
